X: 3
T: The Night Before Larry Was Stretched
R: slip jig
M: 9/8
L: 1/8
K: Emin
|:GFE EB,E E2 G|FED DA,D FGA|GFE EB,E E2 G|FGA ABG FED:|
|:GAB BcB d2B|GAB Bcd cAF|GAB BcA B2B|c2 A ABG FED:|


Tune 4712	Setting 17224

